X:1
T:Psalm 9
T:V 7
L:1/4
M:14/4
I:linebreak $
K:C
V:1 treble nm="Pipe Organ" snm="Org."
V:1
 D2 D D A2 c2 B B A3 z |$[M:16/4] c2 B2 A2 G E F2 G2 A3 z |$[M:14/4] A2 c c d2 A2 c c B2 A2 |$ %3
w: Die HART van hul wat U be- ly,|sal in u Naam stand- vas- tig bly.|Dié wat U soek in stil ver- trou- e,|
[M:16/4] z E F2 A2 G E F G E2 D4 |] %4
w: is by U vei- lig en be- hou- e.|

